!!!COM: Charles Gounod
!!!CNT: Francais
!!!TXO: Francais
!!!OTL: Marguerite
!!!ODT: 1865/
!!!LYR: Onesime Pradere
!!!ENC: Jacob Pegg
!!!YOR: Romantic French Song 1830-1870 -David Tunley, ed.,
!!!YOR: New York: Garland Publishing, Inc., 1995, Vol. 5
!!NB: Vocal melody and text only encoded.
!!NB: First instance of melodic material only encoded.
**kern	**silbe
*clef G2	*
*k[]	*
*M4/4	*
*MM[andante]	*
!!created: 5/28/03 23:52
!!proofed and posted: 5/29/03 23:28
!!edit time: 22 min.
=5	=5
2r	.
{4g	{Si
8cc	le
8b	bon-
=6	=6
(8b	-heur
8a)	|
8ff	a\
8ee	sou-
4ee	-ri-
8dd	-re
8ee	t'in-
=7	=7
4dd	-vi-
8cc}	-te,}
8r	.
{4gg	{Jo-
8ee	-yeux
8cc	a-
=8	=8
8cc	-lors,
8b	je
8ee	sens
8dd	un
4.dd	doux
8f#	e/-
=9	=9
4g}	-moi;}
4r	.
{4ee	{Si
8ee	la
8ee	dou-
=10	=10
(4ee	-leur
8dd#)	|
8b	t'ac-
8ddn	-ca-
8ddn	-ble,
8ddn	Mar-
8ee	-gue-
=11	=11
4dd	-ri-
8cc}	-te,}
8r	.
{4gg	{O^
8.ee	Mar-
16cc	-gue-
=12	=12
4b-	-ri-
8a}	-te,}
8r	.
{4ff	{o^
8.dd	Mar-
16bn	-gue-
=13	=13
4a	-ri-
8g#}	-te,}
8r	.
{4ee	{Je
8.cc	pleure
16a	a-
=14	=14
8gn	-lors
8cc	je
8dd	pleu-
8ee	-re
4a	com-
4b	-me
=15	=15
4cc}	toi.}
4r	.
2r	.
!!written out repeat until - 
=29	=29
4r	.
8r	.
8r	.
4r	.
{(8g	{Je
8a)	|
=30	=30
(8b	t'ai-
8cc)	|
(8dd	-me-
8ee)	|
4.gg	-rai
8ff	tou-
=31	=31
[4ee	-jours
8ee]}	|}
8r	.
4r	.
{(8e	{Je
8f#)	|
=32	=32
(8g	t'ai-
8a)	|
(8b	-me-
8cc)	|
4.ee	-rai
8dd	tou-
=33	=33
[4cc	-jours!
8cc]}	|}
8r	.
2r	.
*-	*-
